X: 7241
T: Clancy's Fancy
R: reel
M: 4/4
K: Gmajor
dc|BG G2 dBGA|(3BAG Bd egdB|cA (3AAA fcAB|cdef gedc|
BG G2 dG G2|BGBd egdB|cdef gedc|BGAF DG||
Bc|dg g2 bg g2|dggf (3efg dB|cA (3AAA eA (3AAA|cdef gfef|
dg g2 bg g2|dgfg ecdB|cdef gedc|BGAF G2||

